!! 00000] TT[WS
!!!OTL: Zhai huajiao
!!!ARE: Asia, China,ÿShanxi Linxian
!! Ethnic Group: Han
!! WI, 70
!!!SCT: J0083
!!!YEM: Copyright 1995, estate of Helmut Schaffrath.
**kern
*ICvox
*Ivox
*M2/4
*k[f#c#]
*D:
{8.ff#
16ee
8dd
8cc#
=1
8b
8f#
4a
=2
8.b
16ff#
8dd
8cc#
=3
8b
8f#
4a}
=4
{8f#
8a
8dd
16cc#
16b
=5
16a
8a
16b
8dd
8f#
=6
16a
16a
16a
16b
8a
8d
=7
8f#
16e
16f#
4d}
==
!!!AGN: Xiaodiao. Laodong, Shouhuo
!!!ONB: ESAC (Essen Associative Code) Database: CHINA
!!!AMT: simple duple
!!!AIN: vox
!!!EED: Helmut Schaffrath
!!!EEV: 1.0
*-
